;FLAVOR:Marlin
;TIME:944
;Filament used: 2.10671m
;Layer height: 0.2
;MINX:20.4
;MINY:36.4
;MINZ:0.26
;MAXX:199.6
;MAXY:183.6
;MAXZ:0.46
;TARGET_MACHINE.NAME:Unknown
;Generated with Cura_SteamEngine 5.11.0
M140 S60
M105
M190 S60
M104 S215
M105
M109 S215
G28 ;Home
G1 X120 Y120;
M82 ;absolute extrusion mode
G92 E0
G92 E0
G1 F4800 E-2.5
;LAYER_COUNT:2
;LAYER:0
M107
G0 F1800 X24.192 Y37.636 Z0.26
;TYPE:SKIRT
G1 F4800 E0
G1 F1800 X25.939 Y36.755 E0.15228
G1 X26.116 Y36.698 E0.16675
G1 X28.007 Y36.4 E0.31574
G1 X52.27 Y36.4 E2.2041
G1 X54.028 Y36.806 E2.34452
G1 X55.32 Y37.346 E2.45351
G1 X56.949 Y38.46 E2.6071
G1 X57.219 Y38.714 E2.63595
G1 X58.364 Y40.192 E2.78146
G1 X59.245 Y41.939 E2.93374
G1 X59.302 Y42.116 E2.94821
G1 X59.6 Y44.007 E3.0972
G1 X59.6 Y68.163 E4.97723
G1 X59.179 Y70.16 E5.13607
G1 X58.212 Y72.133 E5.30708
G1 X56.98 Y73.465 E5.44829
G1 X55.568 Y74.552 E5.58698
G1 X54.155 Y75.132 E5.70586
G1 X52.51 Y75.6 E5.83896
G1 X27.73 Y75.6 E7.76756
G1 X25.972 Y75.194 E7.90798
G1 X24.68 Y74.654 E8.01697
G1 X23.051 Y73.54 E8.17056
G1 X22.781 Y73.286 E8.19941
G1 X21.636 Y71.808 E8.34492
G1 X20.755 Y70.061 E8.4972
G1 X20.698 Y69.884 E8.51167
G1 X20.4 Y67.993 E8.66066
G1 X20.4 Y43.73 E10.54902
G1 X20.806 Y41.972 E10.68945
G1 X21.346 Y40.68 E10.79843
G1 X22.46 Y39.051 E10.95202
G1 X22.714 Y38.781 E10.98087
G1 X24.192 Y37.636 E11.12639
G0 X24.513 Y38.146
G1 X26.209 Y37.291 E11.27421
G1 X28.056 Y37 E11.41973
G1 X52.2 Y37 E13.29883
G1 X53.844 Y37.38 E13.43015
G1 X55.033 Y37.877 E13.53045
G1 X56.61 Y38.955 E13.67912
G1 X56.745 Y39.082 E13.69354
G1 X57.854 Y40.513 E13.83445
G1 X58.709 Y42.209 E13.98227
G1 X59 Y44.056 E14.12779
G1 X59 Y68.101 E15.99918
G1 X58.608 Y69.962 E16.1472
G1 X57.712 Y71.79 E16.30564
G1 X56.572 Y73.022 E16.43628
G1 X55.265 Y74.028 E16.56465
G1 X53.991 Y74.555 E16.67195
G1 X52.427 Y75 E16.7985
G1 X27.8 Y75 E18.71519
G1 X26.156 Y74.62 E18.84652
G1 X24.967 Y74.123 E18.94681
G1 X23.39 Y73.045 E19.09548
G1 X23.255 Y72.918 E19.10991
G1 X22.146 Y71.487 E19.25081
G1 X21.291 Y69.791 E19.39863
G1 X21 Y67.944 E19.54416
G1 X21 Y43.8 E21.42325
G1 X21.38 Y42.156 E21.55458
G1 X21.877 Y40.967 E21.65488
G1 X22.955 Y39.39 E21.80355
G1 X23.082 Y39.255 E21.81797
G1 X24.513 Y38.146 E21.95888
G0 X24.834 Y38.656
G1 X26.395 Y37.87 E22.0949
G1 X28.106 Y37.6 E22.22971
G1 X52.13 Y37.6 E24.09947
G1 X53.658 Y37.953 E24.22152
G1 X54.748 Y38.409 E24.31348
G1 X56.271 Y39.45 E24.45706
G1 X57.344 Y40.834 E24.59335
G1 X58.13 Y42.395 E24.72938
G1 X58.4 Y44.106 E24.86419
G1 X58.4 Y68.039 E26.72686
G1 X58.037 Y69.764 E26.86406
G1 X57.212 Y71.447 E27.00993
G1 X56.164 Y72.579 E27.13
G1 X54.964 Y73.503 E27.24787
G1 X53.827 Y73.978 E27.34377
G1 X52.344 Y74.4 E27.46377
G1 X27.87 Y74.4 E29.36855
G1 X26.342 Y74.047 E29.49061
G1 X25.252 Y73.591 E29.58257
G1 X23.729 Y72.55 E29.72614
G1 X22.656 Y71.166 E29.86244
G1 X21.87 Y69.605 E29.99846
G1 X21.6 Y67.894 E30.13327
G1 X21.6 Y43.87 E32.00303
G1 X21.953 Y42.342 E32.12509
G1 X22.409 Y41.252 E32.21704
G1 X23.45 Y39.729 E32.36062
G1 X24.834 Y38.656 E32.49692
G0 X25.153 Y39.168
G1 X26.58 Y38.449 E32.62128
G1 X28.156 Y38.2 E32.74546
G1 X52.06 Y38.2 E34.60588
G1 X53.477 Y38.527 E34.71906
G1 X54.459 Y38.938 E34.80191
G1 X55.856 Y39.893 E34.93361
G1 X56.832 Y41.153 E35.05766
G1 X57.551 Y42.58 E35.18202
G1 X57.8 Y44.156 E35.3062
G1 X57.8 Y67.978 E37.16023
G1 X57.466 Y69.566 E37.28653
G1 X56.712 Y71.104 E37.41984
G1 X55.756 Y72.136 E37.52933
G1 X54.662 Y72.979 E37.63682
G1 X53.596 Y73.424 E37.72672
G1 X52.262 Y73.8 E37.83459
G1 X27.94 Y73.8 E39.72754
G1 X26.523 Y73.473 E39.84072
G1 X25.541 Y73.062 E39.92357
G1 X24.144 Y72.107 E40.05528
G1 X23.168 Y70.847 E40.17932
G1 X22.449 Y69.42 E40.30368
G1 X22.2 Y67.844 E40.42786
G1 X22.2 Y43.94 E42.28828
G1 X22.527 Y42.523 E42.40146
G1 X22.938 Y41.541 E42.48431
G1 X23.893 Y40.144 E42.61602
G1 X25.153 Y39.168 E42.74006
G0 X25.474 Y39.678
G1 X26.766 Y39.027 E42.85266
G1 X28.205 Y38.8 E42.96604
G1 X51.99 Y38.8 E44.8172
G1 X53.296 Y39.101 E44.9215
G1 X54.17 Y39.467 E44.99525
G1 X55.439 Y40.335 E45.11491
G1 X56.322 Y41.474 E45.22707
G1 X56.973 Y42.766 E45.33967
G1 X57.2 Y44.205 E45.45305
G1 X57.2 Y67.917 E47.29853
G1 X56.895 Y69.368 E47.41392
G1 X56.212 Y70.761 E47.53467
G1 X55.348 Y71.693 E47.63358
G1 X54.36 Y72.455 E47.73069
G1 X53.433 Y72.846 E47.80899
G1 X52.177 Y73.2 E47.91055
G1 X28.01 Y73.2 E49.79144
G1 X26.704 Y72.899 E49.89575
G1 X25.83 Y72.533 E49.96949
G1 X24.561 Y71.665 E50.08915
G1 X23.678 Y70.526 E50.20132
G1 X23.027 Y69.234 E50.31392
G1 X22.8 Y67.795 E50.4273
G1 X22.8 Y44.01 E52.27845
G1 X23.101 Y42.704 E52.38276
G1 X23.467 Y41.83 E52.45651
G1 X24.335 Y40.561 E52.57617
G1 X25.474 Y39.678 E52.68833
G0 X25.796 Y40.188
G1 X24.777 Y40.978 E52.78868
G1 X23.996 Y42.119 E52.89629
G1 X23.675 Y42.885 E52.96093
G1 X23.4 Y44.08 E53.05637
G1 X23.4 Y67.746 E54.89826
G1 X23.605 Y69.048 E55.00085
G1 X24.188 Y70.204 E55.10161
G1 X24.978 Y71.223 E55.20196
G1 X26.119 Y72.004 E55.30957
G1 X26.885 Y72.325 E55.37421
G1 X28.08 Y72.6 E55.46965
G1 X52.092 Y72.6 E57.33847
G1 X53.27 Y72.268 E57.43373
G1 X54.057 Y71.931 E57.50036
G1 X54.94 Y71.25 E57.58714
G1 X55.712 Y70.418 E57.67548
G1 X56.324 Y69.17 E57.78366
G1 X56.6 Y67.856 E57.88816
G1 X56.6 Y44.254 E59.72507
G1 X56.395 Y42.952 E59.82765
G1 X55.812 Y41.796 E59.92842
G1 X55.022 Y40.777 E60.02877
G1 X53.881 Y39.996 E60.13638
G1 X53.115 Y39.675 E60.20102
G1 X51.92 Y39.4 E60.29646
G1 X28.254 Y39.4 E62.13835
G1 X26.952 Y39.605 E62.24093
G1 X25.796 Y40.188 E62.3417
G0 X26.115 Y40.7
G1 X27.138 Y40.184 E62.43087
G1 X28.304 Y40 E62.52274
G1 X51.85 Y40 E64.3553
G1 X52.931 Y40.249 E64.44163
G1 X53.594 Y40.526 E64.49755
G1 X54.607 Y41.22 E64.59312
G1 X55.3 Y42.115 E64.68122
G1 X55.816 Y43.138 E64.77039
G1 X56 Y44.304 E64.86226
G1 X56 Y67.795 E66.69054
G1 X55.753 Y68.972 E66.78414
G1 X55.212 Y70.075 E66.87975
G1 X54.535 Y70.804 E66.95718
G1 X53.75 Y71.41 E67.03436
G1 X53.107 Y71.69 E67.08895
G1 X52.007 Y72 E67.17789
G1 X28.15 Y72 E69.03465
G1 X27.069 Y71.751 E69.12099
G1 X26.406 Y71.474 E69.17691
G1 X25.393 Y70.78 E69.27248
G1 X24.7 Y69.885 E69.36058
G1 X24.184 Y68.862 E69.44975
G1 X24 Y67.696 E69.54162
G1 X24 Y44.15 E71.37418
G1 X24.249 Y43.069 E71.46051
G1 X24.526 Y42.406 E71.51644
G1 X25.22 Y41.393 E71.612
G1 X26.115 Y40.7 E71.7001
G0 X26.434 Y41.211
G1 X27.324 Y40.762 E71.77768
G1 X28.353 Y40.6 E71.85876
G1 X51.78 Y40.6 E73.68205
G1 X52.747 Y40.823 E73.75929
G1 X53.307 Y41.057 E73.80652
G1 X54.192 Y41.663 E73.89
G1 X54.789 Y42.434 E73.96589
G1 X55.238 Y43.324 E74.04348
G1 X55.4 Y44.353 E74.12455
G1 X55.4 Y67.734 E75.94426
G1 X55.182 Y68.774 E76.02696
G1 X54.712 Y69.732 E76.11001
G1 X54.128 Y70.361 E76.17681
G1 X53.444 Y70.888 E76.24402
G1 X52.944 Y71.112 E76.28666
G1 X51.922 Y71.4 E76.3693
G1 X28.22 Y71.4 E78.21399
G1 X27.253 Y71.177 E78.29123
G1 X26.693 Y70.943 E78.33846
G1 X25.808 Y70.337 E78.42194
G1 X25.211 Y69.566 E78.49783
G1 X24.762 Y68.676 E78.57542
G1 X24.6 Y67.647 E78.65649
G1 X24.6 Y44.22 E80.47978
G1 X24.823 Y43.253 E80.55702
G1 X25.057 Y42.693 E80.60425
G1 X25.663 Y41.808 E80.68773
G1 X26.434 Y41.211 E80.76363
G0 X26.755 Y41.721
G1 X27.51 Y41.341 E80.82941
G1 X28.403 Y41.2 E80.89977
G1 X51.71 Y41.2 E82.71373
G1 X52.612 Y41.408 E82.78577
G1 X52.968 Y41.552 E82.81566
G1 X53.775 Y42.105 E82.8918
G1 X54.279 Y42.755 E82.95581
G1 X54.659 Y43.51 E83.02159
G1 X54.8 Y44.403 E83.09196
G1 X54.8 Y67.673 E84.90303
G1 X54.611 Y68.576 E84.97483
G1 X54.211 Y69.391 E85.04549
G1 X53.724 Y69.915 E85.10117
G1 X53.136 Y70.368 E85.15894
G1 X52.781 Y70.534 E85.18944
G1 X51.837 Y70.8 E85.26577
G1 X28.29 Y70.8 E87.0984
G1 X27.388 Y70.592 E87.17044
G1 X27.032 Y70.448 E87.20033
G1 X26.225 Y69.895 E87.27647
G1 X25.721 Y69.245 E87.34049
G1 X25.341 Y68.49 E87.40627
G1 X25.2 Y67.597 E87.47663
G1 X25.2 Y44.29 E89.29059
G1 X25.408 Y43.388 E89.36263
G1 X25.552 Y43.032 E89.39252
G1 X26.105 Y42.225 E89.46866
G1 X26.755 Y41.721 E89.53267
G0 X27.077 Y42.231
G1 X27.696 Y41.919 E89.58662
G1 X28.452 Y41.8 E89.64618
G1 X51.64 Y41.8 E91.45088
G1 X52.477 Y41.993 E91.51773
G1 X52.681 Y42.083 E91.53508
G1 X53.358 Y42.547 E91.59896
G1 X53.769 Y43.077 E91.65116
G1 X54.081 Y43.696 E91.70511
G1 X54.2 Y44.452 E91.76467
G1 X54.2 Y67.612 E93.56718
G1 X54.04 Y68.378 E93.62809
G1 X53.711 Y69.048 E93.68618
G1 X53.317 Y69.471 E93.73117
G1 X52.821 Y69.853 E93.7799
G1 X52.618 Y69.956 E93.79761
G1 X51.752 Y70.2 E93.86764
G1 X28.36 Y70.2 E95.68821
G1 X27.523 Y70.007 E95.75506
G1 X27.319 Y69.917 E95.77241
G1 X26.642 Y69.453 E95.83629
G1 X26.231 Y68.923 E95.88849
G1 X25.919 Y68.304 E95.94244
G1 X25.8 Y67.548 E96.002
G1 X25.8 Y44.36 E97.80669
G1 X25.993 Y43.523 E97.87354
G1 X26.083 Y43.319 E97.8909
G1 X26.547 Y42.642 E97.95478
G1 X27.077 Y42.231 E98.00697
G0 X27.347 Y42.767
G1 X26.989 Y43.058 E98.04288
G1 X26.578 Y43.658 E98.09948
G1 X26.4 Y44.43 E98.16114
G1 X26.4 Y67.5 E99.95665
G1 X26.497 Y68.118 E100.00534
G1 X26.767 Y68.653 E100.05198
G1 X27.058 Y69.011 E100.08789
G1 X27.658 Y69.422 E100.14449
G1 X28.43 Y69.6 E100.20615
G1 X51.667 Y69.6 E102.01465
G1 X52.455 Y69.378 E102.07837
G1 X52.951 Y68.996 E102.1271
G1 X53.212 Y68.704 E102.15758
G1 X53.469 Y68.181 E102.20293
G1 X53.6 Y67.552 E102.25293
G1 X53.6 Y44.5 E104.04704
G1 X53.503 Y43.882 E104.09573
G1 X53.233 Y43.347 E104.14237
G1 X52.942 Y42.989 E104.17828
G1 X52.342 Y42.578 E104.23488
G1 X51.57 Y42.4 E104.29654
G1 X28.5 Y42.4 E106.09205
G1 X27.882 Y42.497 E106.14073
G1 X27.347 Y42.767 E106.18737
G0 X27.617 Y43.303
G1 X28.069 Y43.075 E106.22678
G1 X28.5 Y43 E106.26082
G1 X51.5 Y43 E108.05088
G1 X52.098 Y43.138 E108.09865
G1 X52.493 Y43.387 E108.13499
G1 X52.697 Y43.617 E108.15892
G1 X52.925 Y44.069 E108.19832
G1 X53 Y44.5 E108.23237
G1 X53 Y67.5 E110.02243
G1 X52.93 Y67.916 E110.05526
G1 X52.708 Y68.368 E110.09445
G1 X52.577 Y68.527 E110.11048
G1 X52.203 Y68.825 E110.1477
G1 X51.582 Y69 E110.19792
G1 X28.5 Y69 E111.99436
G1 X27.902 Y68.862 E112.04212
G1 X27.507 Y68.613 E112.07846
G1 X27.303 Y68.383 E112.10239
G1 X27.075 Y67.931 E112.14179
G1 X27 Y67.5 E112.17584
G1 X27 Y44.5 E113.9659
G1 X27.138 Y43.902 E114.01367
G1 X27.387 Y43.507 E114.05001
G1 X27.617 Y43.303 E114.07393
G1 F4800 E111.57393
G0 F1800 X28.347 Y44.242
G1 F4800 E114.07393
G1 F1800 X28.5 Y44.2 E114.08628
G1 X51.5 Y44.2 E115.87634
G1 X51.649 Y44.239 E115.88833
G1 X51.758 Y44.347 E115.90027
G1 X51.8 Y44.5 E115.91262
G1 X51.8 Y67.5 E117.70268
G1 X51.761 Y67.649 E117.71467
G1 X51.653 Y67.758 E117.72661
G1 X51.5 Y67.8 E117.73896
G1 X28.5 Y67.8 E119.52902
G1 X28.351 Y67.761 E119.54101
G1 X28.242 Y67.653 E119.55295
G1 X28.2 Y67.5 E119.5653
G1 X28.2 Y44.5 E121.35536
G1 X28.239 Y44.351 E121.36734
G1 X28.347 Y44.242 E121.37929
G0 X27.921 Y43.82
G1 X28.188 Y43.663 E121.40339
G1 X28.5 Y43.6 E121.42817
G1 X51.5 Y43.6 E123.21823
G1 X51.801 Y43.659 E123.2421
G1 X52.071 Y43.813 E123.26629
G1 X52.18 Y43.921 E123.27823
G1 X52.337 Y44.188 E123.30234
G1 X52.4 Y44.5 E123.32711
G1 X52.4 Y67.5 E125.11717
G1 X52.341 Y67.801 E125.14104
G1 X52.187 Y68.071 E125.16524
G1 X51.932 Y68.289 E125.19135
G1 X51.5 Y68.4 E125.22606
G1 X28.5 Y68.4 E127.01612
G1 X28.199 Y68.341 E127.03999
G1 X27.929 Y68.187 E127.06419
G1 X27.82 Y68.079 E127.07613
G1 X27.663 Y67.812 E127.10023
G1 X27.6 Y67.5 E127.12501
G1 X27.6 Y44.5 E128.91507
G1 X27.659 Y44.199 E128.93894
G1 X27.813 Y43.929 E128.96313
G1 X27.921 Y43.82 E128.97507
G1 F4800 E126.47507
G0 F1800 X27.847 Y63.535
G0 X28.007 Y90.4
G1 F4800 E128.97507
G1 F1800 X52.27 Y90.4 E130.86343
G1 X54.028 Y90.806 E131.00386
G1 X55.32 Y91.346 E131.11284
G1 X56.949 Y92.46 E131.26643
G1 X57.219 Y92.714 E131.29528
G1 X58.364 Y94.192 E131.4408
G1 X59.245 Y95.939 E131.59307
G1 X59.302 Y96.116 E131.60754
G1 X59.6 Y98.007 E131.75654
G1 X59.6 Y122.155 E133.63594
G1 X59.174 Y124.192 E133.79791
G1 X58.411 Y125.68 E133.92806
G1 X57.722 Y126.702 E134.02399
G1 X56.52 Y127.826 E134.15206
G1 X55.552 Y128.533 E134.24536
G1 X54.011 Y129.207 E134.37626
G1 X52.248 Y129.6 E134.51684
G1 X27.73 Y129.6 E136.42505
G1 X25.972 Y129.194 E136.56547
G1 X24.68 Y128.654 E136.67445
G1 X23.051 Y127.54 E136.82805
G1 X22.781 Y127.286 E136.8569
G1 X21.636 Y125.808 E137.00241
G1 X20.755 Y124.061 E137.15469
G1 X20.698 Y123.884 E137.16916
G1 X20.4 Y121.993 E137.31815
G1 X20.4 Y97.73 E139.20651
G1 X20.806 Y95.972 E139.34693
G1 X21.346 Y94.68 E139.45592
G1 X22.46 Y93.051 E139.60951
G1 X22.714 Y92.781 E139.63836
G1 X24.192 Y91.636 E139.78387
G1 X25.939 Y90.755 E139.93615
G1 X26.116 Y90.698 E139.95062
G1 X28.007 Y90.4 E140.09961
G0 X28.056 Y91
G1 X52.2 Y91 E141.97871
G1 X53.844 Y91.38 E142.11003
G1 X55.033 Y91.877 E142.21033
G1 X56.61 Y92.955 E142.359
G1 X56.745 Y93.082 E142.37343
G1 X57.854 Y94.513 E142.51433
G1 X58.709 Y96.209 E142.66215
G1 X59 Y98.056 E142.80767
G1 X59 Y122.094 E144.67852
G1 X58.604 Y123.989 E144.82919
G1 X57.913 Y125.345 E144.94764
G1 X57.262 Y126.311 E145.0383
G1 X56.166 Y127.341 E145.15536
G1 X55.25 Y128.01 E145.24364
G1 X53.826 Y128.633 E145.36461
G1 X52.18 Y129 E145.49586
G1 X27.8 Y129 E147.39333
G1 X26.156 Y128.62 E147.52465
G1 X24.967 Y128.123 E147.62495
G1 X23.39 Y127.045 E147.77362
G1 X23.255 Y126.918 E147.78804
G1 X22.146 Y125.487 E147.92895
G1 X21.291 Y123.791 E148.07677
G1 X21 Y121.944 E148.22229
G1 X21 Y97.8 E150.10139
G1 X21.38 Y96.156 E150.23271
G1 X21.877 Y94.967 E150.33301
G1 X22.955 Y93.39 E150.48168
G1 X23.082 Y93.255 E150.49611
G1 X24.513 Y92.146 E150.63701
G1 X26.209 Y91.291 E150.78483
G1 X28.056 Y91 E150.93036
G0 X28.106 Y91.6
G1 X52.13 Y91.6 E152.80011
G1 X53.658 Y91.953 E152.92217
G1 X54.748 Y92.409 E153.01412
G1 X56.271 Y93.45 E153.1577
G1 X57.344 Y94.834 E153.294
G1 X58.13 Y96.395 E153.43002
G1 X58.4 Y98.106 E153.56483
G1 X58.4 Y122.033 E155.42704
G1 X58.034 Y123.786 E155.56642
G1 X57.378 Y125.073 E155.67884
G1 X56.803 Y125.919 E155.75845
G1 X55.812 Y126.857 E155.86465
G1 X54.951 Y127.486 E155.94764
G1 X53.641 Y128.059 E156.05892
G1 X52.112 Y128.4 E156.18085
G1 X27.87 Y128.4 E158.06757
G1 X26.342 Y128.047 E158.18962
G1 X25.252 Y127.591 E158.28158
G1 X23.729 Y126.55 E158.42516
G1 X22.656 Y125.166 E158.56145
G1 X21.87 Y123.605 E158.69748
G1 X21.6 Y121.894 E158.83229
G1 X21.6 Y97.87 E160.70205
G1 X21.953 Y96.342 E160.8241
G1 X22.409 Y95.252 E160.91606
G1 X23.45 Y93.729 E161.05964
G1 X24.834 Y92.656 E161.19593
G1 X26.395 Y91.87 E161.33195
G1 X28.106 Y91.6 E161.46677
G0 X28.156 Y92.2
G1 X52.06 Y92.2 E163.32718
G1 X53.477 Y92.527 E163.44037
G1 X54.459 Y92.938 E163.52322
G1 X55.856 Y93.893 E163.65492
G1 X56.832 Y95.153 E163.77897
G1 X57.551 Y96.58 E163.90333
G1 X57.8 Y98.156 E164.02751
G1 X57.8 Y121.972 E165.88108
G1 X57.464 Y123.582 E166.00908
G1 X56.843 Y124.8 E166.11549
G1 X56.343 Y125.529 E166.18429
G1 X55.458 Y126.372 E166.27941
G1 X54.65 Y126.962 E166.35728
G1 X53.453 Y127.486 E166.45897
G1 X52.044 Y127.8 E166.57132
G1 X27.94 Y127.8 E168.44731
G1 X26.523 Y127.473 E168.56049
G1 X25.541 Y127.062 E168.64334
G1 X24.144 Y126.107 E168.77504
G1 X23.168 Y124.847 E168.89909
G1 X22.449 Y123.42 E169.02345
G1 X22.2 Y121.844 E169.14763
G1 X22.2 Y97.94 E171.00805
G1 X22.527 Y96.523 E171.12123
G1 X22.938 Y95.541 E171.20408
G1 X23.893 Y94.144 E171.33578
G1 X25.153 Y93.168 E171.45983
G1 X26.58 Y92.449 E171.58419
G1 X28.156 Y92.2 E171.70837
G0 X28.205 Y92.8
G1 X51.99 Y92.8 E173.55953
G1 X53.296 Y93.101 E173.66383
G1 X54.17 Y93.467 E173.73758
G1 X55.439 Y94.335 E173.85724
G1 X56.322 Y95.474 E173.9694
G1 X56.973 Y96.766 E174.082
G1 X57.2 Y98.205 E174.19538
G1 X57.2 Y121.912 E176.04047
G1 X56.894 Y123.38 E176.15718
G1 X56.348 Y124.46 E176.25136
G1 X55.881 Y125.14 E176.31557
G1 X55.044 Y125.938 E176.40557
G1 X54.352 Y126.438 E176.47202
G1 X53.268 Y126.912 E176.56409
G1 X51.976 Y127.2 E176.66712
G1 X28.01 Y127.2 E178.53236
G1 X26.704 Y126.899 E178.63667
G1 X25.83 Y126.533 E178.71042
G1 X24.561 Y125.665 E178.83007
G1 X23.678 Y124.526 E178.94224
G1 X23.027 Y123.234 E179.05484
G1 X22.8 Y121.795 E179.16822
G1 X22.8 Y98.01 E181.01937
G1 X23.101 Y96.704 E181.12368
G1 X23.467 Y95.83 E181.19743
G1 X24.335 Y94.561 E181.31709
G1 X25.474 Y93.678 E181.42925
G1 X26.766 Y93.027 E181.54185
G1 X28.205 Y92.8 E181.65523
G0 X28.254 Y93.4
G1 X51.92 Y93.4 E183.49713
G1 X53.115 Y93.675 E183.59256
